packages/ndla-icons/svg/common/BlocksDark.svg

<?xml version="1.0" encoding="UTF-8"?>
<svg xmlns="http://www.w3.org/2000/svg" data-license="CC-BY 4.0" data-source="Labs." viewBox="0 0 242 282">
  <g fill="none" fill-rule="evenodd">
    <path fill="#FFF" d="m1.9 70.6 59.3-34.1 59.7 34.1.2 71.2 58.7 33.1 60.3-34.6v70.9l-119 67.8L1.9 209.9v-83.3z"/>
    <path fill="#E7D2FC" d="m121 3.1 119.1 68.5v69.8l-59.3 34-59.8-34V71.9L61.9 38.1z"/>
    <path d="M179.8 173.9v-67.3m-57.9 34.2v.1h.1zm59.9-34.2v66.9l57.1-33V73.6z"/>
    <path fill="#603091" fill-rule="nonzero" d="m121.6.8-.6-.4L.6 70.1l-.5.2v142l120.5 69.4.4.2 120.5-69.4.5-.2v-142L121.6.8Zm116.3 74.6v64.5l-55.1 31.8v-64.5l55.1-31.8Zm0 69.3V210l-115 66.2V211l115-66.3Zm-119 66.1v65.4l-56-32.3v-65.4l56 32.3ZM65.4 37.1l55.6-32 115.3 66.5-55.6 32.1L65.4 37.1Zm113.4 70.1v64.9l-55.9-32.2V75l55.9 32.2Zm-59.9-32.4V140l-56 32.3v-65.2l56-32.3Zm57.4 100.6L121 207.3l-55.4-31.9 55.3-31.9 55.4 31.9Zm-59.5-104-55.9 32.2L5.6 71.7l55.8-32.2 55.4 31.9Zm-57.9 35.7v134.4L4 209.9V75.5l54.9 31.6Z"/>
  </g>
</svg>

<?xml version="1.0" encoding="UTF-8"?>
<svg width="242px" height="282px" viewBox="0 0 242 282" version="1.1" data-license="CC-BY 4.0" data-source="Labs." xmlns="http://www.w3.org/2000/svg">
    <g id="Symbols" stroke="none" stroke-width="1" fill="none" fill-rule="evenodd">
        <g id="Fagfornyelsen-til-lys-bakgrunn">
            <g id="NY-Fagfornyelsen-IKON-til-lys-bakgrunn">
                <polygon id="Rectangle-Copy-31" fill="#FFFFFF" points="1.9 70.6 61.2 36.5 120.9 70.6 121.1 141.8 179.8 174.9 240.1 140.3 240.1 211.2 121.1 279 1.9 209.9 1.9 126.6"></polygon>
                <polygon id="Rectangle-Copy-30" fill="#E7D2FC" points="121 3.1 240.1 71.6 240.1 141.4 180.8 175.4 121 141.4 121 71.9 61.9 38.1"></polygon>
                <line x1="179.8" y1="173.9" x2="179.8" y2="106.6" id="Path"></line>
                <polygon id="Path_1_" points="121.9 140.8 121.9 140.9 122 140.9"></polygon>
                <polygon id="Path_2_" points="181.8 106.6 181.8 173.5 238.9 140.5 238.9 73.6"></polygon>
                <path d="M121.6,0.8 L121,0.4 L0.6,70.1 L0.1,70.3 L0.1,212.3 L120.6,281.7 L121,281.9 L241.5,212.5 L242,212.3 L242,70.3 L121.6,0.8 Z M237.9,75.4 L237.9,139.9 L182.8,171.7 L182.8,107.2 L237.9,75.4 Z M237.9,144.7 L237.9,210 L122.9,276.2 L122.9,211 L237.9,144.7 Z M118.9,210.8 L118.9,276.2 L62.9,243.9 L62.9,178.5 L118.9,210.8 Z M65.4,37.1 L121,5.1 L236.3,71.6 L180.7,103.7 L65.4,37.1 Z M178.8,107.2 L178.8,172.1 L122.9,139.9 L122.9,75 L178.8,107.2 Z M118.9,74.8 L118.9,140 L62.9,172.3 L62.9,107.1 L118.9,74.8 Z M176.3,175.4 L121,207.3 L65.6,175.4 L120.9,143.5 L176.3,175.4 Z M116.8,71.4 L60.9,103.6 L5.6,71.7 L61.4,39.5 L116.8,71.4 Z M58.9,107.1 L58.9,241.5 L4,209.9 L4,75.5 L58.9,107.1 Z" id="Shape" fill="#603091" fill-rule="nonzero"></path>
            </g>
        </g>
    </g>
</svg>
